X:1
T:Benton's Dream
C:Benton Flippen
M:C|
L:1/8
K:Amix
"A"a2a2- aba2 | "G"g2g2- gag2 | "A"e3 f edcB | A3 B A2 cB |
"A"A2 F2 EFAB | "E"=cBcB AFEF | "A"A2 A4 AB |1 A8 :|2 A6 ||
|: F2 | "G"G2 BG AGBG | AB-BA B2 D2 | G2 BG AGBG | AB-BA B2 B2 |
"A" A2 A4 AB | ceaf ecBc | A2 A4 AB |1 A6 :|2 A8|]
